X:1
T:Friend Unfailing, 76.76 D
T:Friend Unfailing, 76.76 D
T:Arranged from Ludwig van Beethoven (1770-1827)
T:Public Domain Courtesy of the Cyber Hymnal™
C:Arranged from Ludwig van Beethoven (1770-1827)
Z:Public Domain
Z:Courtesy of the Cyber Hymnal™
%%score ( 1 2 ) ( 3 4 )
L:1/8
Q:1/4=110
M:4/4
K:G
V:1 treble 
V:2 treble 
V:3 bass 
V:4 bass 
V:1
 D2 | [DB]2 [DB]2 [DB]2 [DB]2 | (c2 AF) D2 D2 | [DG]2 [DG]2 [EG]2 [DG]2 | ([GB]4 [FA]2) D2 | %5
 [GB]2 [GB]2 [Fc]2 [Fc]2 | (e2 d2) [Fc]2 [GB]2 | [EB]2 [EA]2 [^CA]2 [EG]2 | (B4 A2) D2 | %9
 [DB]2 [DB]2 [DB]2 [DB]2 | (c2 A)F D2 D2 | [DG]2 [DG]2 [DF]2 [DG]2 | ([GB]4 [FA]2) D2 | %13
 [GB]2 [GB]2 [Fc]2 [Fc]2 | (e2 d2) [Fc]2 [GB]2 | [EB]2 [EA]2 [DG]2 [DF]2 | ([CA]4 [B,G]2) |] %17
V:2
 D2 | x8 | D4 D2 D2 | x8 | x6 D2 | x8 | G4 x4 | x8 | D6 D2 | x8 | D4 D2 D2 | x8 | x6 D2 | x8 | %14
 G4 x4 | x8 | x6 |] %17
V:3
 D,2 | [G,,G,]2 [G,,G,]2 [G,,G,]2 [G,,G,]2 | [D,F,]4 [D,F,]2 [F,C]2 | [G,B,]2 B,2 [A,C]2 [G,B,]2 | %4
 [D,D]6 [D,D]2 | [G,D]2 [G,D]2 [A,D]2 [A,D]2 | C2 [B,D]2 [A,D]2 [G,D]2 | %7
 [A,^C]2 [A,C]2 [A,,G,]2 [^C,G,]2 | (G,4 F,2) D,2 | [G,,G,]2 [G,,G,]2 [G,,G,]2 [G,,G,]2 | %10
 [D,F,]4 [D,F,]2 [F,C]2 | [G,B,]2 B,2 [A,C]2 [G,B,]2 | [D,D]6 [D,D]2 | %13
 [G,D]2 [G,D]2 [A,D]2 [A,D]2 | C2 [B,D]2 [A,D]2 [G,D]2 | [C,D]2 [C,D]2 [D,B,]2 [D,A,]2 | %16
 ([D,F,]4 [G,,G,]2) |] %17
V:4
 D,2 | x8 | x8 | x2 B,2 x4 | x8 | x8 | C2 x6 | x8 | D,6 D,2 | x8 | x8 | x2 B,2 x4 | x8 | x8 | %14
 C2 x6 | x8 | x6 |] %17

